svg/gridicons-help.svg

<?xml version="1.0" encoding="iso-8859-1"?>
<!-- Generator: Adobe Illustrator 19.2.1, SVG Export Plug-In . SVG Version: 6.00 Build 0)  -->
<svg version="1.1" xmlns="http://www.w3.org/2000/svg" xmlns:xlink="http://www.w3.org/1999/xlink" x="0px" y="0px"
	 viewBox="0 0 24 24" style="enable-background:new 0 0 24 24;" xml:space="preserve">
<g id="help">
	<path d="M12,2C6.477,2,2,6.477,2,12s4.477,10,10,10s10-4.477,10-10S17.523,2,12,2z M13,18h-2v-2h2V18z M13,13.859V15h-2v-2
		c0-0.552,0.448-1,1-1c1.103,0,2-0.897,2-2s-0.897-2-2-2s-2,0.897-2,2H8c0-2.209,1.791-4,4-4s4,1.791,4,4
		C16,11.862,14.722,13.413,13,13.859z"/>
</g>
<g id="Layer_1">
</g>
</svg>

<svg id="Artwork" xmlns="http://www.w3.org/2000/svg" viewBox="0 0 24 24"><title>gridicons-help</title><path d="M12,2A10,10,0,1,0,22,12,10,10,0,0,0,12,2Zm1,16H11V16h2v2Zm0-4.14V15H11V12.89A0.89,0.89,0,0,1,11.89,12,2.08,2.08,0,0,0,14,10.34,2,2,0,1,0,10,10H8A4,4,0,1,1,13,13.86Z"/></svg>
